img/why1.svg

<svg width="56" height="56" viewBox="0 0 56 56" fill="none" xmlns="http://www.w3.org/2000/svg">
    <g clip-path="url(#clip0_422_547)">
        <path d="M42 38.5C42.4832 38.5 42.875 38.1082 42.875 37.625C42.875 37.1418 42.4832 36.75 42 36.75C41.5168 36.75 41.125 37.1418 41.125 37.625C41.125 38.1082 41.5168 38.5 42 38.5Z" fill="white"/>
        <path d="M47.222 14.602C47.1013 14.133 46.6253 13.8548 46.1563 13.972L44.4063 14.4218C43.939 14.5425 43.6573 15.0194 43.7763 15.4867C43.8778 15.8822 44.233 16.1438 44.6233 16.1438C44.6959 16.1438 44.7685 16.135 44.842 16.1167L46.592 15.6669C47.0593 15.547 47.341 15.0702 47.222 14.602V14.602Z" fill="white"/>
        <path d="M55.1246 30.625H51.6246C51.1407 30.625 50.7496 31.017 50.7496 31.5V43.75C50.7496 44.2321 50.3576 44.625 49.8746 44.625H48.1246V42C48.1246 41.0349 47.3397 40.25 46.3746 40.25H45.4742C45.5731 40.1188 45.6807 39.9954 45.7656 39.8519C46.3606 38.8456 46.5277 37.6688 46.2372 36.5365C45.9817 35.5434 45.3929 34.7323 44.6325 34.1565C46.512 33.2885 47.5707 31.1798 47.0387 29.1034L46.8209 28.2564L47.6687 28.0385C49.7057 27.5144 51.4172 26.2299 52.4882 24.4186C53.5592 22.6074 53.8594 20.489 53.337 18.452L52.2485 14.2144L54.7912 13.5616C55.2585 13.4409 55.5402 12.964 55.4212 12.4968L54.7685 9.95401C52.966 2.94439 45.7962 -1.29324 38.7892 0.506637L25.2302 3.98914L24.5775 1.44726C24.4567 0.978262 23.979 0.701762 23.5117 0.817262L16.7314 2.55851C16.5065 2.61626 16.314 2.76064 16.1967 2.96101C16.0777 3.16051 16.0445 3.39851 16.1022 3.62426L16.755 6.16614L0.65237 10.3014C0.18512 10.4221 -0.0966303 10.899 0.0223697 11.3663L0.457245 13.062C0.926245 14.8881 2.30787 16.2374 3.98787 16.7615C4.06399 19.0199 4.44287 21.5416 5.09124 24.0678C6.01699 27.6701 7.39249 30.9409 8.96399 33.2763C10.8032 36.008 12.3782 36.7203 13.521 36.7203C13.7642 36.7203 13.9891 36.6879 14.1921 36.6363C14.284 36.6126 14.3776 36.5811 14.473 36.5453C14.5211 36.5409 14.5684 36.5391 14.6165 36.5269L23.5144 34.2414H23.5152H23.5161L33.261 31.7389L33.478 32.5859C33.9846 34.5581 35.767 35.8733 37.7174 35.8733C37.818 35.8733 37.9204 35.861 38.021 35.854C37.6194 36.7526 37.5144 37.7458 37.762 38.7126C37.9099 39.2893 38.1776 39.8011 38.5162 40.2491H37.6246C36.6595 40.2491 35.8746 41.034 35.8746 41.9991V44.6241C35.8746 45.5893 36.6595 46.3741 37.6246 46.3741H38.4996V47.2491C38.4996 49.6615 40.4622 51.6241 42.8746 51.6241H48.9996V55.1241C48.9996 55.6071 49.3907 55.9991 49.8746 55.9991H55.1246C55.6085 55.9991 55.9996 55.6071 55.9996 55.1241V50.7491V31.5C55.9996 31.017 55.6085 30.625 55.1246 30.625V30.625ZM23.0996 2.73001L23.5345 4.42489L18.4499 5.73126L18.015 4.03639L23.0996 2.73001ZM15.4101 31.017C15.2115 33.2264 14.578 34.7305 13.7555 34.9414C12.9347 35.1558 11.6546 34.1399 10.4156 32.2998C8.95262 30.1254 7.66287 27.0471 6.78699 23.6329C6.19724 21.3369 5.84987 19.0584 5.75624 16.9995C6.11849 16.9846 6.48424 16.9348 6.84912 16.8411L7.48174 16.6784C7.53424 18.2271 7.76787 20.4208 8.48099 23.1971C9.65962 27.7839 11.225 30.4281 12.0536 31.5963C12.2199 31.8316 12.4876 31.9646 12.7667 31.9646C12.8394 31.9646 12.912 31.9559 12.9846 31.9375C13.3355 31.8474 13.5945 31.5499 13.6356 31.1903C13.7992 29.7684 13.8972 26.6989 12.7186 22.1086C12.1245 19.7978 11.337 17.6855 10.4419 15.918L12.177 15.4726C13.0642 17.297 13.8369 19.4311 14.4135 21.6738C15.292 25.088 15.6455 28.406 15.4101 31.017ZM9.27637 17.4983C9.83725 18.7241 10.4725 20.3963 11.0246 22.5444C11.568 24.6619 11.8252 26.4215 11.9276 27.818C11.344 26.5449 10.7201 24.8789 10.1767 22.7623C9.62812 20.6273 9.37787 18.8606 9.27637 17.4983V17.4983ZM23.0795 32.5465L16.503 34.2353C16.804 33.4653 17.0376 32.4695 17.154 31.1728C17.406 28.3684 17.035 24.8404 16.1101 21.238C15.5379 19.0111 14.774 16.8875 13.9007 15.0299L21.4966 13.0786C22.3847 14.9056 23.16 17.0293 23.7375 19.278C25.6914 26.8914 24.672 32.137 23.0795 32.5465V32.5465ZM33.6731 29.8261C33.6722 29.8261 33.6722 29.8261 33.6722 29.8261L25.8034 31.8474C26.975 28.8514 26.66 23.6233 25.4324 18.8431C24.8584 16.611 24.0945 14.4953 23.2204 12.6368L24.6475 12.2701C26.5165 11.7889 28.4275 12.9203 28.9079 14.7884C29.2561 16.1464 30.1136 17.2883 31.3211 18.0014C32.1419 18.4861 33.0554 18.7346 33.9846 18.7346C34.4221 18.7346 34.864 18.6795 35.2997 18.5675L41.3434 17.0153C41.8106 16.8945 42.0924 16.4176 41.9734 15.9504C41.8526 15.4823 41.3757 15.2014 40.9076 15.3204L34.864 16.8726C33.9584 17.1063 33.0177 16.9715 32.2119 16.4955C31.4069 16.0204 30.8364 15.2591 30.6036 14.3535C29.8826 11.5491 27.0135 9.85601 24.2117 10.5753L6.41337 15.1463C4.54349 15.6249 2.63337 14.4961 2.15299 12.6271L1.93512 11.7793L18.0369 7.64401H18.0377L24.8181 5.90276C24.819 5.90276 24.8199 5.90189 24.8207 5.90189L39.225 2.20239C45.2957 0.639637 51.5117 4.31551 53.0719 10.3898L53.5076 12.0855L50.9657 12.7383H50.9649C50.9649 12.7383 50.9649 12.7383 50.964 12.7383L49.3479 13.153C48.8797 13.2738 48.598 13.7506 48.7179 14.2188C48.8395 14.6878 49.3181 14.966 49.7836 14.8488L50.5527 14.651L51.6404 18.8886C52.4812 22.1594 50.5029 25.5045 47.2321 26.3445L45.539 26.7794C45.5381 26.7794 45.5372 26.7794 45.5364 26.7794C45.5355 26.7794 45.5355 26.7803 45.5346 26.7803L33.6731 29.8261ZM38.3692 34.0401C36.9675 34.398 35.5334 33.5519 35.1737 32.151L34.9567 31.304L45.1269 28.6921L45.3447 29.5391C45.7044 30.9418 44.8565 32.375 43.4547 32.7346L38.3692 34.0401ZM44.2589 38.9611C43.9027 39.5649 43.3314 39.9928 42.6524 40.1669C41.9751 40.3401 41.2672 40.2413 40.6644 39.8843C40.0606 39.5273 39.6319 38.9568 39.4577 38.2778C39.2836 37.5988 39.3834 36.8926 39.7404 36.2889C40.0965 35.6851 40.6679 35.2573 41.3469 35.0831C41.5647 35.0271 41.7852 34.9991 42.0049 34.9991C42.4677 34.9991 42.9262 35.1234 43.3357 35.3649C43.9395 35.7219 44.3682 36.2924 44.5424 36.9714C44.7156 37.6513 44.6159 38.3574 44.2589 38.9611V38.9611ZM39.3746 44.625H37.6246V42H41.9952H42.0005H42.0075H46.3746L46.3755 44.625H39.3746ZM54.2496 54.25H50.7496V51.625H54.2496V54.25ZM54.2496 49.875H49.8746H42.8746C41.4274 49.875 40.2496 48.6973 40.2496 47.25V46.375H46.3746H49.8746C51.3219 46.375 52.4996 45.1973 52.4996 43.75V32.375H54.2496V49.875Z" fill="white"/>
    </g>
    <defs>
        <clipPath id="clip0_422_547">
            <rect width="56" height="56" fill="white"/>
        </clipPath>
    </defs>
</svg>

<svg width="56" height="56" fill="none" xmlns="http://www.w3.org/2000/svg"><g clip-path="url(#clip0_422_547)" fill="#fff"><path d="M42 38.5a.875.875 0 100-1.75.875.875 0 000 1.75zm5.222-23.898a.877.877 0 00-1.066-.63l-1.75.45a.874.874 0 10.436 1.695l1.75-.45a.876.876 0 00.63-1.065z"/><path d="M55.125 30.625h-3.5a.875.875 0 00-.875.875v12.25a.876.876 0 01-.875.875h-1.75V42c0-.965-.785-1.75-1.75-1.75h-.9c.098-.131.206-.255.29-.398a4.334 4.334 0 00-1.133-5.695 4.377 4.377 0 002.407-5.054l-.218-.847.848-.218a7.827 7.827 0 004.82-3.62 7.825 7.825 0 00.848-5.966l-1.089-4.238 2.543-.652a.877.877 0 00.63-1.065l-.652-2.543c-1.803-7.01-8.973-11.247-15.98-9.447L25.23 3.989l-.652-2.542a.88.88 0 00-1.066-.63l-6.78 1.742a.87.87 0 00-.535.402.871.871 0 00-.095.663l.653 2.542L.652 10.301a.877.877 0 00-.63 1.065l.435 1.696a5.243 5.243 0 003.53 3.7c.077 2.258.456 4.78 1.104 7.306.926 3.602 2.301 6.873 3.873 9.208 1.84 2.732 3.414 3.444 4.557 3.444a2.702 2.702 0 00.952-.174c.048-.005.095-.007.143-.02l8.898-2.285h.002l9.745-2.502.217.847a4.384 4.384 0 004.24 3.287c.1 0 .202-.012.303-.019a4.33 4.33 0 00-.259 2.859c.148.576.416 1.088.754 1.536h-.891c-.965 0-1.75.785-1.75 1.75v2.625c0 .965.785 1.75 1.75 1.75h.875v.875a4.38 4.38 0 004.375 4.375H49v3.5c0 .483.39.875.875.875h5.25a.875.875 0 00.875-.875V31.5a.875.875 0 00-.875-.875zM23.1 2.73l.434 1.695L18.45 5.73l-.435-1.695L23.1 2.73zm-7.69 28.287c-.199 2.21-.832 3.713-1.655 3.924-.82.215-2.1-.801-3.34-2.641-1.462-2.175-2.752-5.253-3.628-8.667-.59-2.296-.937-4.575-1.03-6.633a5.252 5.252 0 001.092-.159l.633-.163c.052 1.55.286 3.743.999 6.52 1.179 4.586 2.744 7.23 3.573 8.398a.872.872 0 00.93.341.876.876 0 00.652-.747c.163-1.422.261-4.491-.917-9.081-.595-2.311-1.382-4.424-2.277-6.191l1.735-.445c.887 1.824 1.66 3.958 2.237 6.2.878 3.415 1.232 6.733.996 9.344zM9.276 17.498c.561 1.226 1.197 2.898 1.749 5.046.543 2.118.8 3.878.903 5.274-.584-1.273-1.208-2.94-1.751-5.056-.549-2.135-.8-3.901-.9-5.264zM23.08 32.547l-6.576 1.688c.301-.77.535-1.766.651-3.062.252-2.805-.119-6.333-1.044-9.935a35.568 35.568 0 00-2.21-6.208l7.597-1.951c.888 1.827 1.663 3.95 2.24 6.199 1.954 7.613.935 12.859-.657 13.269zm10.594-2.72l-7.87 2.02c1.172-2.996.857-8.224-.37-13.004a35.505 35.505 0 00-2.213-6.206l1.428-.367a3.503 3.503 0 014.26 2.518 5.211 5.211 0 002.413 3.213 5.22 5.22 0 003.979.566l6.043-1.552a.877.877 0 00.63-1.065.877.877 0 00-1.065-.63l-6.044 1.553a3.472 3.472 0 01-2.652-.378 3.474 3.474 0 01-1.608-2.142 5.258 5.258 0 00-6.392-3.778l-17.8 4.571a3.505 3.505 0 01-4.26-2.519l-.218-.848 16.102-4.135 6.781-1.741.003-.001 14.404-3.7C45.295.64 51.512 4.316 53.072 10.39l.436 1.695-2.542.653h-.002l-1.616.415a.876.876 0 00.436 1.696l.769-.198 1.087 4.238a6.131 6.131 0 01-4.408 7.456l-1.693.434h-.003l-.001.001-11.862 3.046zm4.696 4.213a2.63 2.63 0 01-3.195-1.889l-.217-.847 10.17-2.612.218.847a2.628 2.628 0 01-1.89 3.196L38.37 34.04zm5.89 4.921a2.603 2.603 0 01-1.607 1.206 2.61 2.61 0 01-1.988-.283 2.607 2.607 0 01-1.206-1.606 2.608 2.608 0 01.282-1.99 2.64 2.64 0 012.264-1.29c.464.001.922.125 1.332.367a2.607 2.607 0 011.206 1.606c.174.68.074 1.386-.283 1.99zm-4.884 5.664h-1.75V42h8.75v2.625h-7zM54.25 54.25h-3.5v-2.625h3.5v2.625zm0-4.375H42.875a2.628 2.628 0 01-2.625-2.625v-.875h9.625A2.628 2.628 0 0052.5 43.75V32.375h1.75v17.5z"/></g><defs><clipPath id="clip0_422_547"><path fill="#fff" d="M0 0h56v56H0z"/></clipPath></defs></svg>
